X: 634
T: Hangman's Reel
C:Bryan Sutton's first break
B: jims roots
M:C
L:1/8
Q: 1/4=100
K:A
V:1 
|:EF | "A"AEAc "E"BABd | "A"cBAc "E"BAFG | "A"AEAc "E"BABd | "A"cBAc "E"BAFG |
      "A"AEAc "E"BABd | "A"cBAc "E"BAFG | "A"(Bc)Bc "E"BAFE | ECEF y{G}"A"A2 :|
 cd | "A"ecAc  eAcA | "E"BABc BGE2 | "A"ecAc  eAcA | "E"BGEG "A"A2cd |
      "A"ecAc  eAcA | "E"BABc BGE2 | "A"ecAc  eAcA | "E"BGEG "A"AEFG ||
    "E"[BG][BG][BG]([BG] [B2G])Bc | c2Bc BAGE | [AG][BG][BG]([BG] [B2G])cd- | d2c2 BAGE |
    |:"A"CA,CE "D"DFED | "A"CA,CE "D"DFED | "A"CA,CE "D"DFE(=C | "A"^C)EC=C  "E"B,A,B,C |
      "A"CA,CE "D"DFED | "A"CA,CE "D"DFED | "A"CEFG "D"AGAC | "E"ECB,G, "A"A,2 :|
V:[BG 
V:BG 
[BG]([BG] [B2G])Bc | c2Bc BGEG  | [BG]G[BG]G [cG]G[cG]G | [d2G]cB AFED ||
% abcbook-tune_id 6298c25dbae22ad09d27648f


% abcbook-boost 0
% abcbook-tablature 
% abcbook-transpose 
% abcbook-lastupdated 1654178398611
% abcbook-soundfonts 
% abcbook-repeats 1


